img/instagram.svg

<svg width="44" height="44" viewBox="0 0 44 44" fill="none" xmlns="http://www.w3.org/2000/svg">
<path fill-rule="evenodd" clip-rule="evenodd" d="M21.8938 1.4839C33.1233 1.4839 42.2265 10.5873 42.2265 21.8169C42.2265 33.0461 33.1233 42.1494 21.8938 42.1494C10.6643 42.1494 1.56112 33.0461 1.56112 21.8169C1.56112 10.5873 10.6643 1.4839 21.8938 1.4839Z" fill="#212A3A"/>
<path fill-rule="evenodd" clip-rule="evenodd" d="M14 11H29C30.65 11 32 12.35 32 14V29C32 30.65 30.65 32 29 32H14C12.35 32 11 30.65 11 29V14C11 12.35 12.35 11 14 11ZM25 21.5C25 19.57 23.43 18 21.5 18C19.57 18 18 19.57 18 21.5C18 23.43 19.57 25 21.5 25C23.43 25 25 23.43 25 21.5ZM14 29V20H15.181C15.0626 20.4913 15.0019 20.9947 15 21.5C15 25.0899 17.9101 28 21.5 28C25.0899 28 28 25.0899 28 21.5C27.9986 20.9946 27.9379 20.4912 27.819 20H29V29H14ZM25 18H29V14H25V18Z" fill="white"/>
</svg>

<svg xmlns="http://www.w3.org/2000/svg" width="44" height="44" fill="none"><defs/><path fill="#212A3A" fill-rule="evenodd" d="M21.9 1.5a20.3 20.3 0 110 40.6 20.3 20.3 0 010-40.6z" clip-rule="evenodd"/><path fill="#fff" fill-rule="evenodd" d="M14 11h15a3 3 0 013 3v15a3 3 0 01-3 3H14a3 3 0 01-3-3V14a3 3 0 013-3zm11 10.5a3.5 3.5 0 10-7 0 3.5 3.5 0 007 0zM14 29v-9h1.2a6.5 6.5 0 1012.6 0H29v9H14zm11-11h4v-4h-4v4z" clip-rule="evenodd"/></svg>
